icon-themes/breeze_svg/cmd/sc_searchdialog.svg

<svg viewBox="0 0 16 16" xmlns="http://www.w3.org/2000/svg"><path d="m6.5 2c-2.48528 0-4.5 2.01472-4.5 4.5s2.01472 4.5 4.5 4.5c1.06305 0 2.04248-.38361 2.8125-1l4 4 .6875-.6875-4-4c.61639-.77002 1-1.74945 1-2.8125 0-2.48528-2.01472-4.5-4.5-4.5zm0 1a3.5 3.5 0 0 1 3.5 3.5 3.5 3.5 0 0 1 -3.5 3.5 3.5 3.5 0 0 1 -3.5-3.5 3.5 3.5 0 0 1 3.5-3.5z" fill="#4d4d4d"/><path d="m3 12c-.55228 0-1 .44772-1 1s.44772 1 1 1 1-.44772 1-1-.44772-1-1-1zm3 0c-.55228 0-1 .44772-1 1s.44772 1 1 1 1-.44772 1-1-.44772-1-1-1zm3 0c-.55228 0-1 .44772-1 1s.44772 1 1 1 1-.44772 1-1-.44772-1-1-1z" fill="#f47750"/></svg>

<svg xmlns="http://www.w3.org/2000/svg" viewBox="0 0 16 16">
 <path 
     style="fill:#4d4d4d" 
     d="M 6.5 2 C 4.01472 2 2 4.01472 2 6.5 C 2 8.98528 4.01472 11 6.5 11 C 7.56305 11 8.54248 10.61639 9.3125 10 L 13.3125 14 L 14 13.3125 L 10 9.3125 C 10.61639 8.54248 11 7.56305 11 6.5 C 11 4.01472 8.98528 2 6.5 2 z M 6.5 3 A 3.5 3.5 0 0 1 10 6.5 A 3.5 3.5 0 0 1 6.5 10 A 3.5 3.5 0 0 1 3 6.5 A 3.5 3.5 0 0 1 6.5 3 z "
     />
 <path 
     style="fill:#f47750" 
     d="M 3 12 C 2.44772 12 2 12.44772 2 13 C 2 13.55228 2.44772 14 3 14 C 3.55228 14 4 13.55228 4 13 C 4 12.44772 3.55228 12 3 12 z M 6 12 C 5.44772 12 5 12.44772 5 13 C 5 13.55228 5.44772 14 6 14 C 6.55228 14 7 13.55228 7 13 C 7 12.44772 6.55228 12 6 12 z M 9 12 C 8.44772 12 8 12.44772 8 13 C 8 13.55228 8.44772 14 9 14 C 9.55228 14 10 13.55228 10 13 C 10 12.44772 9.55228 12 9 12 z "
     />
 </svg>
